assets/symbols/mulberry/socks.svg

<svg height="850.394" viewBox="0 0 850.394 850.394" width="850.394" xmlns="http://www.w3.org/2000/svg"><g fill="#0b00ea"><path d="m679.5 186.23h73.22s-40.68 228.66-6.27 315.2c21.84 54.9 15.8 143.19-80.88 155.34-7.04.891-110.95-8.64-252.541 66.211-149.489 79.019-211.839 3.319-209.309-64.411 1.27-34.221 19.11-66.41 50.65-75.57 46.46-13.49 192.729-66.61 215.97-89.85 30.851-30.851 61.21-73.22 48.16-156.49-10.86-69.37-13.03-150.43-13.03-150.43z"/><path d="m555.59 90.54h73.22s-7.369 41.42-13.189 95.68v.01h-110.151s2.17 81.06 13.03 150.43c13.05 83.27-17.31 125.64-48.16 156.49-23.24 23.24-169.51 76.36-215.97 89.85-31.54 9.16-49.38 41.35-50.65 75.57-145.06 25.01-153.63-147.91-73.25-171.25 46.45-13.5 192.73-66.62 215.96-89.85 30.85-30.85 61.22-73.23 48.17-156.49-10.87-69.37-13.03-150.44-13.03-150.44h174.02z"/></g><g fill="none"><g stroke="#000" stroke-width="18.856"><path d="m203.72 658.57c1.27-34.221 19.11-66.41 50.65-75.57 46.46-13.49 192.729-66.61 215.97-89.85 30.851-30.851 61.21-73.22 48.16-156.49-10.86-69.37-13.03-150.43-13.03-150.43h247.25s-40.68 228.66-6.27 315.2c21.84 54.9 15.8 143.19-80.88 155.34-7.04.891-110.95-8.64-252.541 66.211-149.489 79.019-211.839 3.319-209.309-64.411zm337.35-472.34v75.22m33.86-75.23v75.23m35.36-75.23v75.23m33.85-75.23v75.23m35.36-75.23v75.23m33.1-74.98v75.23"/><path d="m203.75 658.56c-.01 0-.02 0-.03.011-145.06 25.009-153.63-147.911-73.25-171.251 46.45-13.5 192.73-66.62 215.96-89.85 30.85-30.85 61.22-73.23 48.17-156.49-10.87-69.37-13.03-150.44-13.03-150.44h247.24s-7.369 41.42-13.189 95.68m-198.451-95.68v75.23m33.85-75.23v75.22m35.36-75.22v75.22m33.86-75.22v75.22m35.35-75.22v75.22m33.1-74.98v75.23"/></g><path d="m0 0h850.394v850.394h-850.394z"/></g></svg>

<svg xmlns="http://www.w3.org/2000/svg" width="850.394" height="850.394" viewBox="0 0 850.394 850.394" overflow="visible"><g fill="#0b00ea"><path d="M679.5 186.23h73.22s-40.68 228.66-6.27 315.2c21.84 54.9 15.8 143.19-80.88 155.34-7.04.891-110.95-8.64-252.541 66.211C263.54 802 201.19 726.3 203.72 658.57c1.27-34.221 19.11-66.41 50.65-75.57 46.46-13.49 192.729-66.61 215.97-89.85 30.851-30.851 61.21-73.22 48.16-156.49-10.86-69.37-13.03-150.43-13.03-150.43H679.5z"/><path d="M555.59 90.54h73.22s-7.369 41.42-13.189 95.68v.01H505.47s2.17 81.06 13.03 150.43c13.05 83.27-17.31 125.64-48.16 156.49-23.24 23.24-169.51 76.36-215.97 89.85-31.54 9.16-49.38 41.35-50.65 75.57-145.06 25.01-153.63-147.91-73.25-171.25 46.45-13.5 192.73-66.62 215.96-89.85 30.85-30.85 61.22-73.23 48.17-156.49-10.87-69.37-13.03-150.44-13.03-150.44h174.02z"/></g><g fill="none" stroke="#000" stroke-width="18.856"><path d="M203.72 658.57c1.27-34.221 19.11-66.41 50.65-75.57 46.46-13.49 192.729-66.61 215.97-89.85 30.851-30.851 61.21-73.22 48.16-156.49-10.86-69.37-13.03-150.43-13.03-150.43H752.72s-40.68 228.66-6.27 315.2c21.84 54.9 15.8 143.19-80.88 155.34-7.04.891-110.95-8.64-252.541 66.211C263.54 802 201.19 726.3 203.72 658.57zM541.07 186.23v75.22M574.93 186.22v75.23M610.29 186.22v75.23M644.14 186.22v75.23M679.5 186.22v75.23M712.6 186.47v75.23"/><path d="M203.75 658.56c-.01 0-.02 0-.03.011C58.66 683.58 50.09 510.66 130.47 487.32c46.45-13.5 192.73-66.62 215.96-89.85 30.85-30.85 61.22-73.23 48.17-156.49-10.87-69.37-13.03-150.44-13.03-150.44h247.24s-7.369 41.42-13.189 95.68M417.17 90.54v75.23M451.02 90.54v75.22M486.38 90.54v75.22M520.24 90.54v75.22M555.59 90.54v75.22M588.69 90.78v75.23"/></g><path fill="none" d="M0 0h850.394v850.394H0z"/></svg>
